X:111
T:The groom in his shirt
R:Reel
O:Ireland
S:Kerr's Fourth
B:Kerr's Fourth
Z:Transcription, chords:Mike Long
M:C|
L:1/8
K:G
"G"B2 AF G2DG|"G"G2 (AG) "D"FGAc|\
"G"BGAF "C"G2 (ef)|"C"gfed "D"Bdgd:|\
"G"g2 (ga) bgeg|"D"fefg afdf|
"G"gfga b2 (ag)|"C"gfed "D"Bdef|\
"G"g2 (ga) bgeg|"D"fefg afdf|\
"G"g2 bg "D"f2 af|"C"gfed "D"Bdgd|]
